gfx/saw5.svg

<?xml version="1.0" encoding="UTF-8" standalone="no"?>
<!-- Created with Inkscape (http://www.inkscape.org/) -->

<svg
   width="100mm"
   height="100mm"
   viewBox="0 0 100 100"
   version="1.1"
   id="svg135"
   inkscape:export-filename="saw4.svg"
   inkscape:export-xdpi="25.4"
   inkscape:export-ydpi="25.4"
   xmlns:inkscape="http://www.inkscape.org/namespaces/inkscape"
   xmlns:sodipodi="http://sodipodi.sourceforge.net/DTD/sodipodi-0.dtd"
   xmlns="http://www.w3.org/2000/svg"
   xmlns:svg="http://www.w3.org/2000/svg">
  <sodipodi:namedview
     id="namedview137"
     pagecolor="#ffffff"
     bordercolor="#666666"
     borderopacity="1.0"
     inkscape:showpageshadow="2"
     inkscape:pageopacity="0.0"
     inkscape:pagecheckerboard="0"
     inkscape:deskcolor="#d1d1d1"
     inkscape:document-units="mm"
     showgrid="false" />
  <defs
     id="defs132" />
  <g
     inkscape:label="Layer 1"
     inkscape:groupmode="layer"
     id="layer1">
    <path
       d="m 50,59.428281 c -5.029716,0 -9.108529,-4.220465 -9.108529,-9.428279 0,-5.206508 4.078813,-9.428279 9.108529,-9.428279 5.031009,0 9.108525,4.221771 9.108525,9.428279 0,5.207814 -4.077516,9.428279 -9.108525,9.428279 z M 95.865633,51.418171 100,55.739467 c 0,0 -6.459948,-9.952072 -8.010338,-13.618626 -1.550386,-3.666553 2.454781,-3.011812 2.454781,-3.011812 l 4.780362,3.011812 c 0,0 -7.105943,-6.547418 -10.594315,-10.213971 -3.488372,-3.666553 1.679586,-4.321295 1.679586,-4.321295 l 5.038762,1.702329 c 0,0 -6.847548,-4.190347 -11.49871,-6.023624 -4.651163,-1.833276 -1.808786,-5.237932 -1.808786,-5.237932 h 7.105943 c 0,0 -7.751935,-1.702329 -13.049092,-2.357071 -5.297158,-0.654742 -3.100777,-4.845089 -3.100777,-4.845089 l 6.201549,-1.8332756 c 0,0 -5.555553,0.2618964 -12.403101,0.5237933 C 59.94832,9.7766021 62.532301,5.9791006 62.532301,5.9791006 l 5.297157,-3.2737082 c 0,0 -7.364342,2.2261217 -12.7907,4.0593983 C 49.612404,8.5980672 51.162791,3.8839273 51.162791,3.8839273 L 55.038758,0 c 0,0 -3.229972,1.6578059 -9.68992,5.9791006 -6.459949,4.3226044 -6.201553,0 -6.201553,0 L 42.764857,0 c 0,0 -4.521963,4.0148756 -8.914728,9.5147057 -4.392765,5.4998293 -5.555556,0 -5.555556,0 l 1.29199,-5.7617265 c 0,0 -3.359173,6.1545713 -6.072351,11.6544008 -2.713179,5.499831 -4.780362,1.964226 -4.780362,1.964226 v -7.333107 c 0,0 -2.196382,10.606815 -2.842377,14.797162 -0.645995,4.190346 -4.909561,1.964224 -4.909561,1.964224 L 9.5607233,20.12152 c 0,0 0.7751937,12.832936 0.5167957,15.844749 -0.2583976,3.011811 -3.7467698,1.440433 -3.7467698,1.440433 l -2.971576,-5.892677 c 0,0 3.4883718,10.86871 4.3927647,14.928108 0.9043929,4.059401 -2.971576,2.618968 -2.971576,2.618968 L 0,44.346962 c 0,0 6.2015505,9.166384 8.2687337,12.701988 2.0671833,3.535605 -1.9379845,4.583191 -1.9379845,4.583191 L 0.64599483,57.572744 c 0,0 8.01033597,8.642588 11.36950917,10.868708 3.359173,2.226124 -0.516796,3.535605 -0.516796,3.535605 L 4.134367,70.405679 c 0,0 11.111111,5.630779 13.565891,6.94026 2.454781,1.309484 0.387597,4.190347 0.387597,4.190347 l -6.718346,0.392847 c 0,0 13.049095,2.880863 14.98708,3.404655 1.937984,0.523794 0.775194,3.797504 0.775194,3.797504 l -6.33075,2.095171 c 0,0 12.661499,-1.047586 15.503876,-1.178535 2.842376,-0.130949 1.679586,3.535604 1.679586,3.535604 l -5.684754,3.404657 c 0,0 11.498707,-3.666551 15.245478,-4.714141 3.746771,-1.047585 1.808786,3.797503 1.808786,3.797503 L 45.219638,100 c 0,0 9.173125,-6.023624 12.532301,-7.856897 3.359172,-1.833277 3.488371,2.618964 3.488371,2.618964 L 57.881138,100 c 0,0 6.847544,-7.856897 9.94832,-10.868708 3.100773,-3.011813 4.392763,0.654742 4.392763,0.654742 l -0.775195,2.749913 -1.03359,3.797503 c 0,0 4.392766,-9.166385 6.201552,-12.963887 1.808786,-3.7975 4.909558,-0.392844 4.909558,-0.392844 l -0.387595,6.809315 c 0,0 2.58398,-10.868713 3.359172,-15.190009 0.775195,-4.321296 4.651162,-0.785691 4.651162,-0.785691 l 1.162791,6.285522 c 0,0 -0.258396,-6.547417 -0.387596,-15.190009 -0.1292,-8.642587 6.718348,2.749918 6.718348,2.749918 0,0 -2.84238,-8.380693 -4.392767,-13.618626 -1.550386,-5.237936 3.617572,-2.618968 3.617572,-2.618968"
       style="fill:#231f20;fill-opacity:1;fill-rule:nonzero;stroke:none;stroke-width:0.0130071"
       id="path24" />
  </g>
</svg>

<?xml version="1.0" encoding="UTF-8" standalone="no"?>
<!-- Created with Inkscape (http://www.inkscape.org/) -->

<svg
   width="100mm"
   height="100mm"
   viewBox="0 0 100 100"
   version="1.1"
   id="svg135"
   inkscape:export-filename="saw4.svg"
   inkscape:export-xdpi="25.4"
   inkscape:export-ydpi="25.4"
   sodipodi:docname="saw5.svg"
   inkscape:version="1.2.1 (9c6d41e410, 2022-07-14, custom)"
   xmlns:inkscape="http://www.inkscape.org/namespaces/inkscape"
   xmlns:sodipodi="http://sodipodi.sourceforge.net/DTD/sodipodi-0.dtd"
   xmlns="http://www.w3.org/2000/svg"
   xmlns:svg="http://www.w3.org/2000/svg">
  <sodipodi:namedview
     id="namedview137"
     pagecolor="#ffffff"
     bordercolor="#666666"
     borderopacity="1.0"
     inkscape:showpageshadow="2"
     inkscape:pageopacity="0.0"
     inkscape:pagecheckerboard="0"
     inkscape:deskcolor="#d1d1d1"
     inkscape:document-units="mm"
     showgrid="false"
     inkscape:zoom="1.4340417"
     inkscape:cx="188.97638"
     inkscape:cy="188.97638"
     inkscape:window-width="1366"
     inkscape:window-height="717"
     inkscape:window-x="0"
     inkscape:window-y="27"
     inkscape:window-maximized="1"
     inkscape:current-layer="layer1" />
  <defs
     id="defs132" />
  <g
     inkscape:label="Layer 1"
     inkscape:groupmode="layer"
     id="layer1">
    <path
       id="path24"
       style="fill:#000000;fill-opacity:1;fill-rule:nonzero;stroke:none;stroke-width:0.0130071"
       d="M 42.764832 0 C 42.764832 0 38.242891 4.0148401 33.85013 9.5146647 C 29.45737 15.014489 28.294397 9.5146647 28.294397 9.5146647 L 29.586308 3.7527425 C 29.586308 3.7527425 26.227502 9.9075043 23.514327 15.407328 C 20.801151 20.907154 18.73374 17.371549 18.73374 17.371549 L 18.73374 10.038664 C 18.73374 10.038664 16.537531 20.645351 15.891536 24.835693 C 15.245542 29.026035 10.981759 26.799915 10.981759 26.799915 L 9.5606567 20.121769 C 9.5606567 20.121769 10.335819 32.95447 10.077421 35.96628 C 9.8190237 38.978088 6.3308797 37.406502 6.3308797 37.406502 L 3.3589681 31.513839 C 3.3589681 31.513839 6.8475896 42.382733 7.7519816 46.442126 C 8.6563736 50.501523 4.7805868 49.061088 4.7805868 49.061088 L 0 44.347164 C 0 44.347164 6.2015648 53.513114 8.2687459 57.048714 C 10.335927 60.584316 6.3308797 61.631897 6.3308797 61.631897 L 0.6459554 57.572713 C 0.6459554 57.572713 8.6561174 66.215183 12.015287 68.4413 C 15.374457 70.667422 11.498523 71.977002 11.498523 71.977002 L 4.1341146 70.405522 C 4.1341146 70.405522 15.245434 76.036704 17.700212 77.346183 C 20.15499 78.655666 18.087785 81.536108 18.087785 81.536108 L 11.369332 81.929366 C 11.369332 81.929366 24.418548 84.810018 26.356531 85.333809 C 28.294513 85.857603 27.131677 89.13151 27.131677 89.13151 L 20.800798 91.226473 C 20.800798 91.226473 33.462387 90.178682 36.304761 90.047734 C 39.147134 89.916785 37.984245 93.583435 37.984245 93.583435 L 32.299837 96.988395 C 32.299837 96.988395 43.798651 93.321543 47.545418 92.273954 C 51.292186 91.22637 49.354093 96.071655 49.354093 96.071655 L 45.219462 100.0001 C 45.219462 100.0001 54.392858 93.976484 57.75203 92.143213 C 61.111199 90.309938 61.24019 94.762174 61.24019 94.762174 L 57.881222 100.0001 C 57.881222 100.0001 64.728679 92.143318 67.829451 89.13151 C 70.930221 86.1197 72.222465 89.786251 72.222465 89.786251 L 71.446802 92.535954 L 70.413273 96.333655 C 70.413273 96.333655 74.806178 87.167086 76.614962 83.369588 C 78.423746 79.572092 81.52474 82.976847 81.52474 82.976847 L 81.137166 89.786251 C 81.137166 89.786251 83.720943 78.917255 84.496134 74.595964 C 85.271329 70.274672 89.14753 73.810482 89.14753 73.810482 L 90.31025 80.095886 C 90.31025 80.095886 90.051876 73.548182 89.922677 64.905599 C 89.793477 56.263021 96.640613 67.655819 96.640613 67.655819 C 96.640613 67.655819 93.798501 59.274939 92.248116 54.037012 C 90.697732 48.799081 95.865466 51.41805 95.865466 51.41805 L 100.0001 55.739233 C 100.0001 55.739233 93.540122 45.787494 91.989734 42.120943 C 90.439349 38.454394 94.444364 39.109241 94.444364 39.109241 L 99.224951 42.120943 C 99.224951 42.120943 92.118618 35.573646 88.630249 31.907096 C 85.141881 28.240547 90.31025 27.585396 90.31025 27.585396 L 95.348702 29.288135 C 95.348702 29.288135 88.501336 25.097488 83.850179 23.264213 C 79.199021 21.430939 82.041504 18.02629 82.041504 18.02629 L 89.14753 18.02629 C 89.14753 18.02629 81.395349 16.324069 76.098197 15.669328 C 70.801045 15.014586 72.997611 10.824146 72.997611 10.824146 L 79.198783 8.9906657 C 79.198783 8.9906657 73.643464 9.2527681 66.795923 9.5146647 C 59.948386 9.7765609 62.5321 5.9789632 62.5321 5.9789632 L 67.829451 2.7052612 C 67.829451 2.7052612 60.464854 4.931687 55.038501 6.7649618 C 49.612152 8.5982364 51.162769 3.8840007 51.162769 3.8840007 L 55.038501 0 C 55.038501 0 51.808595 1.6576728 45.348653 5.9789632 C 38.888711 10.301563 39.147481 5.9789632 39.147481 5.9789632 L 42.764832 0 z M 50.000049 40.000142 A 10 10 0 0 1 59.999955 50.000049 A 10 10 0 0 1 50.000049 59.999955 A 10 10 0 0 1 40.000142 50.000049 A 10 10 0 0 1 50.000049 40.000142 z " />
  </g>
</svg>
